X:100
T:Hornpipe
S:John Moore's Book 2
Z:Transcribed by Steve Mansfield 05/2021
%%VWML: Moore2-4494-p77-0
F:http://www.vwml.org/record/Moore2/4494/p77
M:C
L:1/8
K:G
d2 | ^cded g2dB | dcAF G2FG | Aced cBAG | B2A2 A2Bc | 
^cded g2dB | dcAF G2FG | AedB cDEF | A2G2G2 :|
|: G2 | FDFA dcAF | GBdB g2fe | efgf abc'b | agfe dcBc | 
^cded g2dB | dcAF G2FG | AedB cDEF | A2G2G2 :|

